X:306
T:Miss Kirsty Batchelor 
C:Joe Buchanan's Scottish Tome - Page 007.0
I:007 0
R:March
Z:Carl Allison
L:1/8
M:2/4
K:Bb
dc |:"Bb" B>c BD | "Bb"F2 DF | "Eb"G/F/G/A/ B>G |"Bb" FD "F"DF |
"Bb"B>c "Gm"BD | "Bb"F2 DF | "Eb"G/F/G/A/ "Bb"B>D | "C7"DC "F"Cd/c/ |
"Bb"B>c "Gm"BD | "Bb"F2 DF | "Eb"G/F/G/A/ B>G | "Bb"FD "F"DF |
"Eb"G>A "Cm"eG | "Bb"F>B dF | "Cm"Ec/d/ e/d/c/B/ |"F7" Ac cd/e/ |
"Bb"dc/B/ fB | "Eb"gB "F7"f>e | "Bb"df Bd |"Bb" FB D/F/B/d/ |
"Cm"ec gc | "Cm"ac "G7"g>f |"Cm" eg ce |"F7" Ac F/A/c/e/ |
"Bb"dc/B/ fB | "Eb"fB "F7"f>e |"Bb" df Bd |"Bb" FB D/E/F/D/ |
"Eb"E>G "Cm"cE |"Bb" D>F "Gm"BD |"Eb" EF/G/ "Cm"FA |1"Bb" B2 dc :|2"Bb" B2 B |]

